X:88
T:Father Kelly's 1
T:The Rossmore jetty
R:Reel
O:Ireland
B:Music from Ireland Vol. 3
S:Music from Ireland Vol. 3
Z:Transcription, slight arr., chords:Mike Long
M:C|
L:1/8
K:G
GA|\
"G"~B2GB "C"AGEG|"G"DGGF G2AB|"Am"cBAB cBAG|"C"EAAG "D"FDGA|\
"G"~B2GB "C"AGEG|"G"DGGF GABc|
~d2Bd gdBd|[1 "D"cAFA "G"G2:|[2 "D"cAFA "G"GABc\
|:"G"~d2Bd gdBd|~d2Bd gdBd|"C"~e2ce agfe|
"D"defg agfe|\
"G"~d2Bd gdBd|~d2Bd gdBd|"C"~c2Ac "G"~B2GB|[1 "D"AGEF "G"GABc:|[2 "D"AGEF "G"G2|]
